img/health-icon/pdu.svg

<svg width="20" height="20" viewBox="0 0 20 20" fill="none" xmlns="http://www.w3.org/2000/svg">
<path d="M14.5624 1H5.43387C2.98918 1 1 3.03143 1 5.52387V14.4761C1 16.9686 2.98918 19 5.43387 19H14.5624C17.0108 19 19 16.9686 19 14.4761V5.52387C19 3.03143 17.0108 1 14.5624 1ZM6.7453 9.79795V9.8255C6.7453 10.2626 6.37979 10.6447 5.94632 10.6447H5.01142C4.57796 10.6447 4.21428 10.2626 4.21428 9.8255V9.79795V5.72224V5.66714C4.25469 5.23367 4.58347 4.85714 5.01142 4.85714H5.94632C6.38346 4.85714 6.7453 5.25204 6.7453 5.69469V9.79795ZM11.6475 15.6149V15.7232C11.6475 16.1824 11.2912 16.4304 10.8394 16.4304H9.99999H9.1606C8.70877 16.4304 8.35244 16.1035 8.35244 15.6443V15.6167V14.4633C8.35244 13.5265 9.07979 12.7643 9.99999 12.7643C10.9202 12.7643 11.6475 13.5265 11.6475 14.4633V15.6149ZM15.7857 9.79795V9.8255C15.7857 10.2626 15.422 10.6447 14.9886 10.6447H14.0133C13.5798 10.6447 13.2143 10.2626 13.2143 9.8255V9.79795V5.72224V5.66714C13.2547 5.23367 13.5853 4.85714 14.0133 4.85714H14.9886C15.422 4.85714 15.7857 5.25204 15.7857 5.69469V9.79795Z" stroke="#52525A" stroke-width="1.5"/>
</svg>

<svg width="20" height="20" fill="none" xmlns="http://www.w3.org/2000/svg"><path d="M14.562 1H5.434C2.989 1 1 3.031 1 5.524v8.952C1 16.97 2.99 19 5.434 19h9.128C17.011 19 19 16.969 19 14.476V5.524C19 3.03 17.01 1 14.562 1zM6.745 9.798v.027c0 .438-.365.82-.799.82h-.935c-.433 0-.797-.382-.797-.82V5.668c.04-.433.37-.81.797-.81h.935c.437 0 .8.395.8.838v4.103zm4.903 5.817v.108c0 .46-.357.707-.809.707H9.16c-.451 0-.808-.326-.808-.786V14.463c0-.936.728-1.699 1.648-1.699.92 0 1.648.763 1.648 1.7v1.15zm4.138-5.817v.027c0 .438-.364.82-.797.82h-.976c-.433 0-.799-.382-.799-.82V5.668c.04-.433.371-.81.8-.81h.975c.433 0 .797.395.797.838v4.103z" stroke="#52525A" stroke-width="1.5"/></svg>
